src/vs/editor/contrib/suggest/media/LocalVariable_16x_vscode.svg

<svg viewBox="0 0 16 16" xmlns="http://www.w3.org/2000/svg"><path d="m16 16h-16v-16h16z" fill="#f6f6f6" opacity="0"/><path d="m2 5v6h2v1h-3v-8h3v1zm10 6v1h3v-8h-3v1h2v6z" fill="#424242"/><path d="m8.733 4-4.733 2.367v3.156l3.156 1.577 4.733-2.367v-3.155zm-1.577 3.156-1.578-.789 3.156-1.578 1.578.789z" fill="#00539c"/></svg>

<svg xmlns="http://www.w3.org/2000/svg" viewBox="0 0 16 16"><style>.icon-canvas-transparent{opacity:0;fill:#f6f6f6}.icon-vs-out{fill:#f6f6f6}.icon-vs-bg{fill:#424242}.icon-vs-fg{fill:#f0eff1}.icon-vs-action-blue{fill:#00539c}</style><path class="icon-canvas-transparent" d="M16 16H0V0h16v16z" id="canvas"/><path class="icon-vs-out" d="M11 3v1.015L8.733 2.882 5 4.749V3H0v10h5v-1.859l2.156 1.077L11 10.295V13h5V3h-5z" id="outline" style="display: none;"/><path class="icon-vs-bg" d="M2 5v6h2v1H1V4h3v1H2zm10 6v1h3V4h-3v1h2v6h-2z" id="iconBg"/><path class="icon-vs-fg" d="M7.156 7.156l-1.578-.789 3.156-1.578 1.578.789-3.156 1.578z" id="iconFg" style="display: none;"/><path class="icon-vs-action-blue" d="M8.733 4L4 6.367v3.156L7.156 11.1l4.733-2.367V5.578L8.733 4zM7.156 7.156l-1.578-.789 3.156-1.578 1.578.789-3.156 1.578z" id="colorImportance"/></svg>
